Glyphs/8.svg

<svg xmlns="http://www.w3.org/2000/svg" xmlns:xlink="http://www.w3.org/1999/xlink" version="1.1" x="0px" y="0px" viewBox="0 0 32 32" enable-background="new 0 0 32 32" xml:space="preserve"><g display="none"><rect x="-153.333" y="-102.625" display="inline" fill="#000000" width="473.333" height="236"/></g><g display="none"><g display="inline"><g><path fill="#000000" d="M27,32H5c-2.75,0-5-2.25-5-5V5c0-2.75,2.25-5,5-5h22c2.75,0,5,2.25,5,5v22C32,29.75,29.75,32,27,32z"/></g></g><g display="inline"><polygon fill="#000000" points="20.542,8.152 16,12.695 11.458,8.152 8.152,11.458 12.695,16 8.152,20.542 11.458,23.848     16,19.305 20.542,23.848 23.848,20.542 19.305,16 23.848,11.458   "/></g></g><g display="none"><g display="inline"><g><path fill="#000000" d="M27,1c2.206,0,4,1.794,4,4v22c0,2.206-1.794,4-4,4H5c-2.206,0-4-1.794-4-4V5c0-2.206,1.794-4,4-4H27      M27,0H5C2.25,0,0,2.25,0,5v22c0,2.75,2.25,5,5,5h22c2.75,0,5-2.25,5-5V5C32,2.25,29.75,0,27,0L27,0z"/></g></g><g display="inline"><path fill="#000000" d="M20.542,9.567l1.891,1.891l-3.835,3.835L17.891,16l0.707,0.707l3.835,3.835l-1.891,1.891l-3.835-3.835    L16,17.891l-0.707,0.707l-3.835,3.835l-1.891-1.891l3.835-3.835L14.109,16l-0.707-0.707l-3.835-3.835l1.891-1.891l3.835,3.835    L16,14.109l0.707-0.707L20.542,9.567 M20.542,8.152L16,12.695l-4.542-4.542l-3.305,3.305L12.695,16l-4.542,4.542l3.305,3.305    L16,19.305l4.542,4.542l3.305-3.305L19.305,16l4.542-4.542L20.542,8.152L20.542,8.152z"/></g></g><g display="none"><g display="inline"><path fill="#000000" d="M5,31.5c-2.481,0-4.5-2.019-4.5-4.5V5c0-2.481,2.019-4.5,4.5-4.5h22c2.481,0,4.5,2.019,4.5,4.5v22    c0,2.481-2.019,4.5-4.5,4.5H5z"/><g><path d="M27,1c2.206,0,4,1.794,4,4v22c0,2.206-1.794,4-4,4H5c-2.206,0-4-1.794-4-4V5c0-2.206,1.794-4,4-4H27 M27,0H5     C2.25,0,0,2.25,0,5v22c0,2.75,2.25,5,5,5h22c2.75,0,5-2.25,5-5V5C32,2.25,29.75,0,27,0L27,0z"/></g></g><g display="inline"><polygon fill="#000000" points="16,18.598 11.458,23.14 8.859,20.543 13.401,16 8.859,11.458 11.458,8.859 16,13.402     20.542,8.859 23.141,11.458 18.599,16 23.141,20.543 20.542,23.14   "/><g><path d="M20.542,9.567l1.891,1.891l-3.835,3.835L17.891,16l0.707,0.707l3.835,3.835l-1.891,1.891l-3.835-3.835L16,17.891     l-0.707,0.707l-3.835,3.835l-1.891-1.891l3.835-3.835L14.109,16l-0.707-0.707l-3.835-3.835l1.891-1.891l3.835,3.835L16,14.109     l0.707-0.707L20.542,9.567 M20.542,8.152L16,12.695l-4.542-4.542l-3.305,3.305L12.695,16l-4.542,4.542l3.305,3.305L16,19.305     l4.542,4.542l3.305-3.305L19.305,16l4.542-4.542L20.542,8.152L20.542,8.152z"/></g></g></g><g><path d="M27,0H5C2.25,0,0,2.25,0,5v22c0,2.75,2.25,5,5,5h22c2.75,0,5-2.25,5-5V5C32,2.25,29.75,0,27,0z M23.848,20.542   l-3.305,3.305L16,19.305l-4.542,4.542l-3.305-3.305L12.695,16l-4.542-4.542l3.305-3.305L16,12.695l4.542-4.542l3.305,3.305   L19.305,16L23.848,20.542z"/></g><text x="0" y="47" fill="#000000" font-size="5px" font-weight="bold" font-family="'Helvetica Neue', Helvetica, Arial-Unicode, Arial, Sans-serif">Created by Alfredo @ IconsAlfredo.com</text><text x="0" y="52" fill="#000000" font-size="5px" font-weight="bold" font-family="'Helvetica Neue', Helvetica, Arial-Unicode, Arial, Sans-serif">from the Noun Project</text></svg>

<?xml version="1.0" encoding="UTF-8" standalone="no"?>
<svg
   xmlns:dc="http://purl.org/dc/elements/1.1/"
   xmlns:cc="http://creativecommons.org/ns#"
   xmlns:rdf="http://www.w3.org/1999/02/22-rdf-syntax-ns#"
   xmlns:svg="http://www.w3.org/2000/svg"
   xmlns="http://www.w3.org/2000/svg"
   xmlns:sodipodi="http://sodipodi.sourceforge.net/DTD/sodipodi-0.dtd"
   xmlns:inkscape="http://www.inkscape.org/namespaces/inkscape"
   version="1.1"
   x="0px"
   y="0px"
   viewBox="0 0 10 10"
   enable-background="new 0 0 32 32"
   xml:space="preserve"
   id="svg56"
   sodipodi:docname="8.svg"
   width="10"
   height="10"
   inkscape:version="1.0.2 (e86c870879, 2021-01-15, custom)"><metadata
     id="metadata62"><rdf:RDF><cc:Work
         rdf:about=""><dc:format>image/svg+xml</dc:format><dc:type
           rdf:resource="http://purl.org/dc/dcmitype/StillImage" /><dc:title></dc:title></cc:Work></rdf:RDF></metadata><defs
     id="defs60" /><sodipodi:namedview
     pagecolor="#ffffff"
     bordercolor="#666666"
     borderopacity="1"
     objecttolerance="10"
     gridtolerance="10"
     guidetolerance="10"
     inkscape:pageopacity="0"
     inkscape:pageshadow="2"
     inkscape:window-width="1920"
     inkscape:window-height="986"
     id="namedview58"
     showgrid="false"
     inkscape:zoom="25"
     inkscape:cx="16"
     inkscape:cy="11.013333"
     inkscape:window-x="-11"
     inkscape:window-y="-11"
     inkscape:window-maximized="1"
     inkscape:current-layer="svg56" /><g
     display="none"
     id="g4"><rect
       x="-153.33299"
       y="-102.625"
       display="inline"
       fill="#000000"
       width="473.33301"
       height="236"
       id="rect2" /></g><g
     display="none"
     id="g16"><g
       display="inline"
       id="g10"><g
         id="g8"><path
           fill="#000000"
           d="M 27,32 H 5 C 2.25,32 0,29.75 0,27 V 5 C 0,2.25 2.25,0 5,0 h 22 c 2.75,0 5,2.25 5,5 v 22 c 0,2.75 -2.25,5 -5,5 z"
           id="path6" /></g></g><g
       display="inline"
       id="g14"><polygon
         fill="#000000"
         points="11.458,8.152 8.152,11.458 12.695,16 8.152,20.542 11.458,23.848 16,19.305 20.542,23.848 23.848,20.542 19.305,16 23.848,11.458 20.542,8.152 16,12.695 "
         id="polygon12" /></g></g><g
     display="none"
     id="g28"><g
       display="inline"
       id="g22"><g
         id="g20"><path
           fill="#000000"
           d="m 27,1 c 2.206,0 4,1.794 4,4 v 22 c 0,2.206 -1.794,4 -4,4 H 5 C 2.794,31 1,29.206 1,27 V 5 C 1,2.794 2.794,1 5,1 H 27 M 27,0 H 5 C 2.25,0 0,2.25 0,5 v 22 c 0,2.75 2.25,5 5,5 h 22 c 2.75,0 5,-2.25 5,-5 V 5 C 32,2.25 29.75,0 27,0 Z"
           id="path18" /></g></g><g
       display="inline"
       id="g26"><path
         fill="#000000"
         d="m 20.542,9.567 1.891,1.891 -3.835,3.835 -0.707,0.707 0.707,0.707 3.835,3.835 -1.891,1.891 L 16.707,18.598 16,17.891 15.293,18.598 11.458,22.433 9.567,20.542 13.402,16.707 14.109,16 13.402,15.293 9.567,11.458 11.458,9.567 15.293,13.402 16,14.109 16.707,13.402 20.542,9.567 m 0,-1.415 L 16,12.695 11.458,8.153 8.153,11.458 12.695,16 8.153,20.542 11.458,23.847 16,19.305 20.542,23.847 23.847,20.542 19.305,16 23.847,11.458 Z"
         id="path24" /></g></g><g
     display="none"
     id="g46"><g
       display="inline"
       id="g36"><path
         fill="#000000"
         d="M 5,31.5 C 2.519,31.5 0.5,29.481 0.5,27 V 5 C 0.5,2.519 2.519,0.5 5,0.5 h 22 c 2.481,0 4.5,2.019 4.5,4.5 v 22 c 0,2.481 -2.019,4.5 -4.5,4.5 z"
         id="path30" /><g
         id="g34"><path
           d="m 27,1 c 2.206,0 4,1.794 4,4 v 22 c 0,2.206 -1.794,4 -4,4 H 5 C 2.794,31 1,29.206 1,27 V 5 C 1,2.794 2.794,1 5,1 H 27 M 27,0 H 5 C 2.25,0 0,2.25 0,5 v 22 c 0,2.75 2.25,5 5,5 h 22 c 2.75,0 5,-2.25 5,-5 V 5 C 32,2.25 29.75,0 27,0 Z"
           id="path32" /></g></g><g
       display="inline"
       id="g44"><polygon
         fill="#000000"
         points="8.859,20.543 13.401,16 8.859,11.458 11.458,8.859 16,13.402 20.542,8.859 23.141,11.458 18.599,16 23.141,20.543 20.542,23.14 16,18.598 11.458,23.14 "
         id="polygon38" /><g
         id="g42"><path
           d="m 20.542,9.567 1.891,1.891 -3.835,3.835 -0.707,0.707 0.707,0.707 3.835,3.835 -1.891,1.891 L 16.707,18.598 16,17.891 15.293,18.598 11.458,22.433 9.567,20.542 13.402,16.707 14.109,16 13.402,15.293 9.567,11.458 11.458,9.567 15.293,13.402 16,14.109 16.707,13.402 20.542,9.567 m 0,-1.415 L 16,12.695 11.458,8.153 8.153,11.458 12.695,16 8.153,20.542 11.458,23.847 16,19.305 20.542,23.847 23.847,20.542 19.305,16 23.847,11.458 Z"
           id="path40" /></g></g></g><g
     id="g50"
     transform="scale(0.3125)"><path
       d="M 27,0 H 5 C 2.25,0 0,2.25 0,5 v 22 c 0,2.75 2.25,5 5,5 h 22 c 2.75,0 5,-2.25 5,-5 V 5 C 32,2.25 29.75,0 27,0 Z M 23.848,20.542 20.543,23.847 16,19.305 11.458,23.847 8.153,20.542 12.695,16 8.153,11.458 11.458,8.153 16,12.695 20.542,8.153 23.847,11.458 19.305,16 Z"
       id="path48" /></g></svg>
